X:1
T:Meramec, 86.86.88.86
T:Charles Hutchinson Gabriel, Jr.,1914
T:Meramec, 86.86.88.86
T:Public Domain
C:Charles Hutchinson Gabriel, Jr.,1914
Z:Public Domain
%%score ( 1 2 ) ( 3 4 )
L:1/8
M:6/8
K:Eb
V:1 treble 
V:2 treble 
V:3 bass 
V:4 bass 
V:1
 [EG] | [EG]2 [EG] (GB)[EA] | [EG]2 [DF] [B,E]2 [_DE] | [CE]2 [CA] [Ec]2 [Ee] | (E2 F [GB]2) [EA] | %5
 [EG]2 [EG] (GB)[EA] | [EG]2 [DF] E2 [CE] | [CE]2 [=A,C] [B,D]2 [A,E] | (B,DC [B,F]2) [_A_B] | %9
 [Ge]2 [EB] [Ed]2 [Ec] | [EB]2 [DA] [EG]2 [FG] | [=EG]2 [EG] [EB]2 G | [Fc]2 F [EF]2 [EF] | %13
 [DF]2 [DF] (AG)[DF] | [EB]2 [EG] E2 [EF] | [EG]2 (B/A/) [DG]2 [B,F] | [B,E]3- [B,E]2 |] %17
V:2
 x | x3 E2 x | x6 | x6 | B3- x3 | x3 E2 x | x3 E2 x | x6 | F3- x3 | x6 | x6 | x5 G | x2 F x3 | %13
 x3 D2 x | x3 E2 x | x2 D x3 | x5 |] %17
V:3
 [E,B,] | [E,B,]2 [E,B,] [A,,D]2 [A,,C] | [B,,B,]2 [B,,A,] [E,G,]2 [E,G,] | %3
 [A,,A,]2 [A,,E,] [A,,A,]2 [C,A,] | (G,2 A, [E,B,]2) [E,C] | [E,B,]2 [E,_D] [A,,C]2 [A,,_C] | %6
 [B,,B,]2 [=B,,A,] [C,G,]2 [B,,_G,] | [=A,,F,]2 [E,F,] [D,F,]2 [C,F,] | [B,,_A,]3- [_B,,_A,]2 B, | %9
 [E,B,]2 [G,B,] A,2 A, | [G,B,]2 [F,B,] [E,B,]2 [D,=B,] | [C,_B,]2 [C,B,] [C,C]2 [=E,B,] | %12
 [F,A,]2 [F,A,] [F,=A,]2 [F,A,] | [B,,_A,]2 [B,,A,] (CB,)[A,B,] | [G,B,]2 B,/G,/ [C,G,]2 [_C,A,] | %15
 [B,,B,]2 (B,/C/) [B,,B,]2 [B,,A,] | [E,G,]3- [E,G,]2 |] %17
V:4
 x | x6 | x6 | x6 | E,3- x3 | x6 | x6 | x6 | x5 B, | x3 A,2 A, | x6 | x6 | x6 | x3 B,,2 x | %14
 x2 E, x3 | x2 B,, x3 | x5 |] %17

